!! 00000] TT[WS
!!!OTL: Shiquan renxen
!!!ARE: Asia, China, Shanxi Pingjie
!! Ethnic Group: Han
!! WII, 239
!!!SCT: J0759
!!!YEM: Copyright 1995, estate of Helmut Schaffrath.
**kern
*ICvox
*Ivox
*M4/4
*k[f#]
*G:
{8a
8a
8a
16dd
16ee
8cc
8b
4a
=1
8dd
16b
16a
8a
8e
2d}
=2
{8a
8b
8a
8a
8g
8f#
8e
8d
=3
8a
8g
16e
16d
8e
2d}
=4
{8a
8g
4a
8a
8dd
8cc
8b
=5
8a
16a
16b
8a
8d
2g}
=6
{8dd
8f#
8a
8b
8a
8g
8e
8d
=7
8a
8g
16e
16d
8e
2d}
=8
{8a
16a
16b
8a
8dd
2g
=9
8dd
8f#
8a
8b
8a
8g
8e
8d
=10
8a
8g
16e
16d
8e
2d}
==
!!!AGN: Xiaodiao. XÅshi, Xinminge
!!!ONB: ESAC (Essen Associative Code) Database: CHINA
!!!AMT: simple quadruple
!!!AIN: vox
!!!EED: Helmut Schaffrath
!!!EEV: 1.0
*-
